source/img/icon_run.svg

<svg width="21" height="24" viewBox="0 0 21 24" fill="none" xmlns="http://www.w3.org/2000/svg">
<path opacity="0.15" d="M14.9758 5.75992C15.9264 5.75992 16.697 4.90031 16.697 3.83992C16.697 2.77954 15.9264 1.91992 14.9758 1.91992C14.0253 1.91992 13.2547 2.77954 13.2547 3.83992C13.2547 4.90031 14.0253 5.75992 14.9758 5.75992Z" fill="#1D2E5B"/>
<path opacity="0.15" d="M13.9234 10.5302C14.1209 10.8586 14.4043 11.1113 14.735 11.2538C15.0657 11.3964 15.4277 11.4219 15.7719 11.327L18.6257 10.5312L18.21 8.66881L15.3563 9.46465L14.1695 7.48033C13.9159 7.05655 13.5224 6.76184 13.0748 6.66049L9.76496 5.92129C9.39468 5.83839 9.01024 5.89379 8.671 6.07893C8.33176 6.26406 8.0566 6.56863 7.888 6.94561L6.46113 10.129L8.00074 10.9882L9.42761 7.80385L11.1204 8.18209L6.74341 16.32H2.92752V18.24H6.74341C7.3441 18.24 7.90952 17.8829 8.21933 17.3078L9.86996 14.2397L14.3184 15.2323L15.8812 20.4634L17.5129 19.8557L15.9509 14.6256C15.8545 14.3045 15.684 14.0174 15.4564 13.7933C15.2289 13.5691 14.9524 13.4158 14.6549 13.3488L12.0395 12.7661L13.5645 9.93025L13.9234 10.5302Z" fill="#1D2E5B"/>
</svg>

<svg focusable="false" role="img" width="21" height="24" fill="none" xmlns="http://www.w3.org/2000/svg"><path opacity=".15" d="M14.976 5.76c.95 0 1.721-.86 1.721-1.92s-.77-1.92-1.721-1.92c-.95 0-1.721.86-1.721 1.92s.77 1.92 1.72 1.92zM13.923 10.53c.198.329.481.581.812.724.33.142.693.168 1.037.073l2.854-.796-.416-1.862-2.854.796L14.17 7.48a1.735 1.735 0 00-1.094-.82l-3.31-.739a1.56 1.56 0 00-1.094.158c-.34.185-.614.49-.783.867l-1.427 3.183 1.54.86 1.427-3.185 1.692.378-4.377 8.138H2.928v1.92h3.815c.601 0 1.167-.357 1.476-.932L9.87 14.24l4.448.992 1.563 5.231 1.632-.607-1.562-5.23a1.955 1.955 0 00-.495-.833 1.665 1.665 0 00-.801-.444l-2.615-.583 1.525-2.836.358.6z" fill="#1D2E5B"/></svg>
